X: 2676
T: Bank Of Turf, The
R: jig
M: 6/8
K: Dmajor
A|BAF DFA|BAF DFA|~d2d ede|~f2f def|
g2B gab|afd Bcd|~e2A fed|cBA dcB|
ABA DED|DBD DFA|~d2d ede|~f2f def|
g2B gab|afd B2A|ABc dfe|~d2d d2f||
|:~e2A efg|~f2d fga|gfe fed|edB ABd|
~e2A efg|~f2d fga|gfe dcB|1 A3 ABd:|2 A3 ABc||

